usr/share/icons/biglinux-icons-material-dark/symbolic/status/unpin-symbolic.svg

<svg width="16" height="16" version="1.1" xmlns="http://www.w3.org/2000/svg">
 <path d="m3 1 1 1v4l-2 2h7l-2-2v-4l1-1zm2 8v4.75a16.197 16.197 0 0 0 0.5 1.5 18.757 18.757 0 0 0 0.5-1.5v-4.75z" color="#000000" fill="#dedede"/>
 <path d="m11.5 8a3.5 3.5 0 0 0-3.5 3.5 3.5 3.5 0 0 0 3.5 3.5 3.5 3.5 0 0 0 3.5-3.5 3.5 3.5 0 0 0-3.5-3.5zm-2.5 3h5v1h-5z" fill="#dedede" stroke-linecap="round" stroke-linejoin="round" stroke-opacity=".25" stroke-width="1.4022" style="paint-order:markers stroke fill"/>
</svg>

<svg xmlns="http://www.w3.org/2000/svg" width="16" height="16">
<path fill="#363636" d="m3 1 1 1v4L2 8h7L7 6V2l1-1zm2 8v4.75a16 16 0 0 0 .5 1.5 19 19 0 0 0 .5-1.5V9z" color="#000"/>
<path fill="#363636" d="M11.5 8A3.5 3.5 0 0 0 8 11.5a3.5 3.5 0 0 0 3.5 3.5 3.5 3.5 0 0 0 3.5-3.5A3.5 3.5 0 0 0 11.5 8M9 11h5v1H9z" style="paint-order:markers stroke fill"/>
</svg>
